X: 23636
T: Limerick Junction
R: hornpipe
M: 4/4
K: Dmajor
|:AG|F2FE FAGF|EFED CDEG|FAd2 cde2|edcB AGFE|
FGFE FAGF|EFED CDEG|FAdA BGFE|D2DE D2:|
|:fg|afdf gece|fdcd BAFA|BGFG E2gf|edcB A2fg|
afdf gece|fdcd BAGE|FAdf gece|d2dc d2:|

